img/svg/whatsapp-icon.svg

<svg width="32" height="32" viewBox="0 0 32 32" fill="none" xmlns="http://www.w3.org/2000/svg">
<path d="M23.6785 18.3875C23.6162 18.3576 21.2832 17.2088 20.8687 17.0596C20.6995 16.9989 20.5182 16.9395 20.3254 16.9395C20.0104 16.9395 19.7457 17.0965 19.5396 17.4049C19.3065 17.7513 18.6011 18.5759 18.3832 18.8223C18.3547 18.8548 18.3159 18.8936 18.2925 18.8936C18.2717 18.8936 17.9106 18.7449 17.8013 18.6975C15.2987 17.6104 13.3992 14.9963 13.1387 14.5555C13.1015 14.4921 13.1 14.4634 13.0997 14.4634C13.1088 14.4298 13.193 14.3454 13.2364 14.3019C13.3635 14.1763 13.5012 14.0105 13.6344 13.8502C13.6974 13.7743 13.7606 13.6982 13.8226 13.6265C14.0159 13.4017 14.1019 13.2271 14.2016 13.025L14.2539 12.9199C14.4974 12.436 14.2894 12.0278 14.2222 11.8959C14.167 11.7856 13.182 9.40821 13.0772 9.15846C12.8254 8.55577 12.4926 8.27515 12.0302 8.27515C11.9872 8.27515 12.0302 8.27515 11.8502 8.28271C11.6311 8.29196 10.4379 8.44902 9.9103 8.78165C9.3508 9.13439 8.4043 10.2587 8.4043 12.2361C8.4043 14.0157 9.53367 15.696 10.0185 16.3351C10.0306 16.3512 10.0527 16.3839 10.0849 16.4309C11.9418 19.1428 14.2567 21.1526 16.6034 22.09C18.8627 22.9924 19.9325 23.0968 20.5407 23.0968C20.5408 23.0968 20.5408 23.0968 20.5408 23.0968C20.7964 23.0968 21.0009 23.0767 21.1814 23.0589L21.2959 23.048C22.0764 22.9788 23.7915 22.0901 24.1816 21.0059C24.4889 20.152 24.57 19.219 24.3655 18.8804C24.2254 18.6501 23.984 18.5342 23.6785 18.3875Z" fill="white"/>
<path d="M16.2841 0C7.61745 0 0.566637 6.99781 0.566637 15.5992C0.566637 18.3812 1.31114 21.1045 2.72157 23.4879L0.0220121 31.451C-0.0283004 31.5994 0.00913708 31.7636 0.11895 31.8754C0.198262 31.9564 0.305762 32 0.415575 32C0.457637 32 0.500012 31.9937 0.541387 31.9804L8.84476 29.3419C11.117 30.5559 13.6851 31.1968 16.2841 31.1968C24.9499 31.1969 32 24.1998 32 15.5992C32 6.99781 24.95 0 16.2841 0ZM16.2841 27.9474C13.8384 27.9474 11.4698 27.2412 9.43357 25.9051C9.36514 25.8601 9.28564 25.8371 9.20564 25.8371C9.16332 25.8371 9.12095 25.8435 9.0797 25.8566L4.9202 27.1788L6.26295 23.2174C6.30639 23.0892 6.28464 22.9478 6.20464 22.8384C4.65407 20.7198 3.83445 18.2166 3.83445 15.5992C3.83445 8.78956 9.41926 3.24944 16.2839 3.24944C23.1477 3.24944 28.7319 8.78956 28.7319 15.5992C28.7321 22.4081 23.1479 27.9474 16.2841 27.9474Z" fill="white"/>
</svg>

<svg width="32" height="32" viewBox="0 0 32 32" fill="none" xmlns="http://www.w3.org/2000/svg"><path d="M23.678 18.387c-.062-.03-2.395-1.178-2.81-1.327a1.599 1.599 0 00-.543-.12c-.315 0-.58.156-.785.465-.233.346-.939 1.17-1.157 1.417-.028.033-.067.072-.09.072-.021 0-.382-.15-.492-.196-2.502-1.088-4.402-3.702-4.662-4.143-.037-.063-.039-.092-.04-.092a.794.794 0 01.137-.161c.127-.126.265-.291.398-.452.063-.076.127-.152.189-.223.193-.225.279-.4.379-.602l.052-.105c.243-.484.035-.892-.032-1.024-.055-.11-1.04-2.488-1.145-2.738-.252-.602-.584-.883-1.047-.883-.043 0 0 0-.18.008-.219.009-1.412.166-1.94.499-.56.352-1.506 1.477-1.506 3.454 0 1.78 1.13 3.46 1.614 4.1.013.015.035.048.067.095 1.857 2.712 4.172 4.722 6.518 5.659 2.26.902 3.33 1.007 3.938 1.007.255 0 .46-.02.64-.038l.115-.011c.78-.07 2.495-.958 2.886-2.042.307-.854.388-1.787.184-2.126-.14-.23-.382-.346-.688-.492z" fill="#fff"/><path d="M16.284 0C7.617 0 .567 6.998.567 15.6c0 2.781.744 5.505 2.155 7.888l-2.7 7.963a.415.415 0 00.52.53l8.303-2.64a15.824 15.824 0 007.44 1.856C24.95 31.197 32 24.2 32 15.599S24.95 0 16.284 0zm0 27.947c-2.446 0-4.814-.706-6.85-2.042a.415.415 0 00-.354-.048l-4.16 1.322 1.343-3.962a.416.416 0 00-.058-.379 12.18 12.18 0 01-2.37-7.239c0-6.81 5.584-12.35 12.449-12.35 6.864 0 12.448 5.54 12.448 12.35s-5.584 12.348-12.448 12.348z" fill="#fff"/></svg>
